X:1
T:Choix de chansons. Tome 1
T:Le Déclin du Jour
T:Le Déclin du Jour
T:Jean Benjamin de La Borde
C:Jean Benjamin de La Borde
Z:Jean Benjamin de La Borde
%%score 1 { ( 2 3 ) | ( 4 5 ) }
L:1/8
Q:1/4=147
M:6/8
K:Eb
V:1 treble nm="Ténor" snm="T."
V:2 treble nm="Clavecin" snm="Cla."
V:3 treble 
V:4 bass 
V:5 bass 
V:1
"^Allegro" e3 f2 g | (ag) f e3 | (d2 f) e3 | e3 f2 g | (ag) f e3 | (d2 f) e3 | c3 B3 | A c f G2 G | %8
w: Vois- tu ces|co- * teaux se|noir- * cir|et nos trou-|peaux * se ré-|u- * nir|Tout an-|non- ce que l'om- bre|
 c3 B3 | A c f G2 G | d2 e f2 g | (g3 f2) z | e3 f2 g | (ag) f e3 | (d2 f) e3 | e3 f2 g | %16
w: va de|son voi- le som- bre|cou- vrir nos ha-|meaux *|el- le a  - mène|a- * vec le|re- \-- pos|sou- vent l'ou-|
 (ag) g e3 | (d2 g) e2 B | (cd) e (fg) a | d2 B e2 a | g3{/g} (fe) f | (f3 g2) B | (cd) e (fg) a | %23
w: bli * de tous|nos * maux les|â- * mes a- * mou-|reu- ses la dé-|si- rent * tou-|jours, * ce|sont * les nuits * heu-|
 d2 B e2 a | g3{/g} (f(e) f) | (f3 !fermata!e2) z || B e B B3 | A F G A3 | G B e (gf) e | %29
w: reu- ses qui font|les beaux- _ _|jours.- _|Viens dans mes bras,|Que tes ap- pas|cou- ron- nent ma * con-|
{/f} e3 d2 z | f g f f3 | e c d e3 | d f e (dc) B |{/B} =A3{/G} F2 z | B =A B d2 d | c d e g f e | %36
w: fi ance,|mon ten- dre a- mour|pen- dant le jour|est ré- duit au * si-|len- ce;|Et mes sou- pirs fi-|nis- sent quand * * *|
 (d3{cB} c3) | B6 ||S!ff! f6- | f6- | f6- | f4 z f | g3 (cd) e | d f B c e =A | B6!D.S.! |] %45
w: men- \--|ce.|Viens-|_||* Viens|voir mes * dé-|sirs se chan- ger en plai-|sirs.|
V:2
 [Ge]3 [Af]2 [Bg] | [ca][Bg][Af] [Ge]3 | [FAd]3 [GBe]3 | [Ge]3 [Af]2 [Bg] | [ca][Bg][Af] [Ge]3 | %5
 [Fd]3 [Ge]2 z | z AE z GD | z FC z E[I:staff +1]B, |[I:staff -1] z AE z GD | %9
 z FC z E[I:staff +1]B, |[I:staff -1] D2 E F2 E | E3 D2 z | [Ge]3 [Af]2 [Bg] | [ca][Bg][Af] [Ge]3 | %14
 [Ad]3 [GBe]2 z | [Ge]3 [Af]2 [Bg] | [ca][Bg][Af] [Ae]3 | [FAd]3 [GBe]2 z | %18
 [CA][DB][Ec] [Fd][Ge][Af] | [DF]3 E2 E | E3 [DFA]3 | [DFA]3 [EGB]2 z | [CA][DB][Ec] [Fd][Ge][Af] | %23
 [DF]3 E2 E | E3 [DFA]3 | [DFA]3 !fermata![EGB]2 z || %26
 z[I:staff +1] B,G,[I:staff -1] z[I:staff +1] B,G, | %27
[I:staff -1] z[I:staff +1] B,A,[I:staff -1] z[I:staff +1] B,A, | %28
[I:staff -1] z[I:staff +1] B,G,[I:staff -1] z[I:staff +1] B,G, | [G,B,]3 [F,B,]2[I:staff -1] z | %30
 z FD z FD | z FE z FE | z FD z FD | z FC z FC | %34
 z[I:staff +1] B,F,[I:staff -1] z[I:staff +1] B,F, | %35
[I:staff -1] z[I:staff +1] B,G,[I:staff -1] z[I:staff +1] B,G, | B,3[I:staff -1] E3 | [DF]6 || %38
 [C=A][DB][Ec] [Ec][DB][CA] | [DB][Ec][Fd] [Fd][Ec][DB] | [C=A][DB][Ec] [Ec][DB][CA] | %41
 [DB][Ec][Fd] [Fd][Ec][DB] | [EGc]3 z2 [EGc] | [DFB]3 [CE=A]3 | [DFB]6 |] %45
V:3
 E3 E3 | E3 E3 | E3 E3 | E3 E3 | E3 E3 | E3 E3 | x6 | x6 | x6 | x6 | x6 | x6 | E3 E3 | E3 E3 | %14
 [EF]3 E3 | E3 E3 | E3 E3 | E3 E2 x | x6 | x6 | x6 | x6 | x6 | x6 | x6 | x6 || x6 | x6 | x6 | x6 | %30
 x6 | x6 | x6 | x6 | x6 | x6 | x6 | x6 || x6 | x6 | x6 | x6 | x6 | x6 | x6 |] %45
V:4
 E,3 E,3 | E,3 E,3 | E,3 E,3 | E,3 E,3 | E,3 E,3 | E,3 E,2 z | C3 B,3 | A,3 G,3 | C3 B,3 | %9
 A,3 G,3 | F,2 E, D,2 E, | B,,3 z2 z | E,3 E,3 | E,3 E,3 | E,3 E,2 z | E,3 E,3 | E,3 E,3 | %17
 E,3 E,2 z | A,3 A,3 | A,3 G,2 A, | B,3 B,,3 | E,3 E,,2 z | A,6 | A,3 G,2 A, | B,3 B,,3 | %25
 E,3 !fermata!E,,2 z || E,3 E,,3 | D,3 B,,3 | E,3 E,,3 | B,,6 | B,3 B,,3 | =A,3 F,3 | B,3 B,,3 | %33
 E,3 E,,3 | D,3 D,,3 | E,3 E,,3 | F,3 F,,3 | B,,6 || E,6 | D,6 | E,6 | D,6 | E,3 z2 E, | F,3 F,,3 | %44
 B,,6 |] %45
V:5
 x6 | x6 | x6 | x6 | x6 | x6 | x6 | x6 | x6 | x6 | A,2 [G,B,] [A,B,]2 [G,B,] | G,3 F,2 z | x6 | %13
 x6 | x6 | x6 | x6 | x6 | x6 | B,3 B,2 C | x6 | x6 | x6 | B,3 B,2 C | x6 | x6 || x6 | x6 | x6 | %29
 x6 | x6 | x6 | x6 | x6 | x6 | x6 | x3 [=A,C]3 | B,6 || x6 | x6 | x6 | x6 | x6 | x6 | x6 |] %45

